icons/running_water_alt_fill.svg

<svg width="48" height="48" viewBox="0 0 48 48" fill="none" xmlns="http://www.w3.org/2000/svg">
<path fill-rule="evenodd" clip-rule="evenodd" d="M26 12C26 10.8954 25.1046 10 24 10C22.8954 10 22 10.8954 22 12V24H26V12ZM28 20V12C28 9.79086 26.2091 8 24 8C21.7909 8 20 9.79086 20 12V20H14V19H18V14C18 12.8954 17.1046 12 16 12H9C7.89543 12 7 12.8954 7 14V19H11V20H7C5.89543 20 5 20.8954 5 22V25H4V27H19V30H29V27H44V25H43V22C43 20.8954 42.1046 20 41 20H37V19H41V14C41 12.8954 40.1046 12 39 12H32C30.8954 12 30 12.8954 30 14V19H34V20H28ZM27 26H21V28H27V26ZM28 38C28 40.2091 26.2091 42 24 42C21.7909 42 20 40.2091 20 38C20 34.5 24 31 24 31C24 31 28 34.5 28 38ZM13 17H12V15H10V17H9V14H16V17H15V15H13V17ZM35 17H36V15H38V17H39V14H32V17H33V15H35V17Z" fill="black"/>
</svg>

<svg
  xmlns="http://www.w3.org/2000/svg"
  width="24"
  height="24"
  viewBox="0 0 24 24"
  fill="none"
  stroke="currentColor"
  stroke-width="2"
  stroke-linecap="round"
  stroke-linejoin="round"
>
  <path
    fill-rule="evenodd"
    d="M26 12a2 2 0 1 0-4 0v12h4zm2 8v-8a4 4 0 0 0-8 0v8h-6v-1h4v-5a2 2 0 0 0-2-2H9a2 2 0 0 0-2 2v5h4v1H7a2 2 0 0 0-2 2v3H4v2h15v3h10v-3h15v-2h-1v-3a2 2 0 0 0-2-2h-4v-1h4v-5a2 2 0 0 0-2-2h-7a2 2 0 0 0-2 2v5h4v1zm-1 6h-6v2h6zm1 12a4 4 0 0 1-8 0c0-3.5 4-7 4-7s4 3.5 4 7M13 17h-1v-2h-2v2H9v-3h7v3h-1v-2h-2zm22 0h1v-2h2v2h1v-3h-7v3h1v-2h2z"
    clip-rule="evenodd"
  />
</svg>
